X:1
T:Title
%%score 1 2
L:1/8
M:6/8
K:Ab
V:1 treble nm="Grand Piano"
V:2 bass nm="Grand Piano"
V:1
 z3 z2[Q:1/4=78] [CE]/[CE]/ | [CE][CA][DB] [Ec][Fd][Ec] | [Fc][FB]>[DF] [FB]2 [FA]/[FA]/ | %3
 [EA][EG][EF] [DG][DF][DE] | [CE]3- [CE]2 [CE]/[CE]/ | [CE][CA][DB] [Ec][Fd][Ec] | %6
 [Fc][FB]>[DF] [FB]2 [FA]/[FA]/ | [EA][EG][EA] [Ec][DB]>[DE] |[M:5/8] [CA]-[CA]- [CA]3 | %9
[M:1/8] [Ec] |[M:3/4] [Ge]>[GB] [GB][GB] [Ge]>[Ed] | [Ec]4- [Ec][Ec] | %12
 [=Ec]>[EG] [EG][EG]/[Ec]/- [Ec][EB] | [FA]4- [FA][FA]/[FA]/ |[M:5/8] [_GA][GB][GA] [Fd]2 | %15
[M:1/8] [DF]/[DF]/ |[M:3/4] [DF][CE] [CA] [Ec]2 [Ec]/[Ed]/ | [Ae][Ed] [Ec][EB] [Ec]>[DB] | %18
[M:5/8] [CA]-[CA]- [CA]3 |] %19
V:2
 z3 z2 [A,,A,]/[A,,A,]/ | [A,,A,][A,,A,][A,,A,] [A,,A,][A,,A,][A,,A,] | %2
 [D,A,][D,B,]>[D,B,] [D,D]2 [D,B,]/[D,B,]/ | [E,C][E,B,][E,A,] [E,B,][E,A,][E,G,] | %4
 [A,,A,]3- [A,,A,]2 [A,,A,] | [A,,A,][A,,A,][A,,A,] [A,,A,][A,,A,][A,,A,] | %6
 [D,A,][D,B,]>[D,B,] [D,D]2 [=D,B,] | [E,C][E,B,][E,C] [E,A,][E,G,]>[E,G,] | %8
[M:5/8] [A,,A,]-[A,,A,]- [A,,A,]3 |[M:1/8] A, |[M:3/4] [E,B,]>[E,E] [E,E][E,E] [E,B,]>[G,B,] | %11
 A,4- A,A, | [C,G,]>[C,C] [C,C][C,C]/[C,G,]/- [C,G,][C,C] | [F,C]4- [F,C][F,C]/[F,C]/ | %14
[M:5/8] [E,C][E,C][E,C] [D,D]2 |[M:1/8] [D,A,]/[D,A,]/ | %16
[M:3/4] [A,,A,][A,,A,] [A,,A,] [A,,A,]2 A,/[A,B,]/ | [A,C][G,B,] A,[E,G,] [E,A,]>[E,G,] | %18
[M:5/8] [A,,A,]-[A,,A,]- [A,,A,]3 |] %19

